X:1
T:The Glorious Morning
T:William Batchelder Bradbury
T:The Glorious Morning
T:Public Domain
T:Public Domain
T:Public Domain
C:William Batchelder Bradbury
Z:Public Domain
%%score 1 ( 2 3 )
L:1/8
M:9/8
K:D
V:1 treble 
V:2 bass 
V:3 bass 
V:1
 [FA]3 | [FA]2 [FA] [FA]2 [FA] [FA]2 [Fd] | [Fd]3 [Ec]3 [Ec]2 [Fd] | [Fe]6 [Fd]2 [Ec] | %4
w: 1.~Soon|shall we see the glor- ious|morn- ing! Saints, a-|rise! Saints, a-|
w: 2.~Hear|ye the trump of God re-|sound- ing, Saints, a-|rise! Saints, a-|
w: 3.~The|saints who sleep, with joy a-|wak- en, All a-|rise! All a-|
w: 4.~Fast|by the throne of God be-|hold them Crowned at|last! Crowned at|
 [Fd]6 [FA]3 | [FA]2 [FA] [FA]2 [FA] [FA]2 [Fd] | [Fd]3 [Ec]3 [Ec]2 [Fd] | [Fe]6 [Fd]2 [Ec] | %8
w: rise! Sin-|ners, at- tend the notes of|warn- ing! Saints, a-|rise! Saints, a-|
w: rise! Through|death’s dark vaults its notes re-|bound- ing: Saints, a-|rise! Saints, a-|
w: rise! Their|clay cold beds are quick for-|sak- en, All a-|rise! All a-|
w: last! See|in His arms the Sav- ior|fold them, Crowned at|last! Crowned at|
 [Fd]6 [Fd]3 | [Bd]2 [^Ac] [Bd]2 [Ac] [Bd]2 [GB] | [FA]6 [Fd]3 | %11
w: rise! The|re- sur- rect- ion day draws|near, The|
w: rise! To|meet the Bride- groom haste! pre-|pare! Put|
w: rise! Not|one of all the faith- ful|few Who|
w: last! With|wreaths of glo- ry round their|head; No|
 [Bd]2 [^Ac] [Bd]2 [Ac] [Bd]2 [GB] | [FA]6 [FA]3 | [FA]2 [FA] [FA]2 [FA] [FA]2 [Fd] | %14
w: King of saints shall soon ap-|pear, And|high His roy- al stand- ard|
w: on your brid- al gar- ments|fair; And|hail your Sav- ior in the|
w: here on earth the Sav- ior|knew, But|starts with bliss his Lord to|
w: tears of sor- row now are|shed, To|joy’s full foun- tain all are|
 ([Fd]3 [Ec]3) [Ec]2 [Fd] | [Ge]6 [Fd]2 [Ec] | [Fd]6 |] %17
w: rear: * Saints, a-|rise! Saints, a-|rise!|
w: air! * Saints, a-|rise! Saints, a-|rise!|
w: view: * All a-|rise! All a-|rise!|
w: led: * Crowned at|last! Crowned at|last!|
V:2
 [D,A,]3 | [D,D]2 [D,D] [D,D]2 [D,D] [D,D]2 [F,A,] | A,3 A,3 A,2 A, | A,6 [A,,A,]2 [A,,A,] | %4
 [D,A,]6 [D,A,]3 | [D,D]2 [D,D] [D,D]2 [D,D] [D,D]2 [F,A,] | A,3 A,3 A,2 A, | %7
 A,6 [A,,A,]2 [A,,A,] | [D,A,]6 D,3 | G,2 G, G,2 G, G,2 G, | D,6 D,3 | G,2 G, G,2 G, G,2 G, | %12
 D,6 [D,D]3 | [D,D]2 [D,D] [D,D]2 [D,D] [D,D]2 [F,A,] | A,6 A,2 A, | A,6 [A,,A,]2 [A,,A,] | %16
 [D,A,]6 |] %17
V:3
 x3 | x9 | A,3 A,3 A,2 A, | A,6 x3 | x9 | x9 | A,3 A,3 A,2 A, | A,6 x3 | x9 | x9 | x9 | x9 | x9 | %13
 x9 | A,6 A,2 A, | A,6 x3 | x6 |] %17

